X: 504
T: A1, The
R: jig
M: 6/8
K: Gmajor
|:E|DGG BAG|gGG fGG|edc BAG|F2 A cAE|
DGG BAG|gGG fGG|edc BGE|D2 F G2:|
|:e|dba dge|d^ce dBG|DD/E/F GAB|c2 B A2 e|
dba dge|d^ce dBG|AA/B/c dBG|D2 F G2:|

